Adwaita++-Light/panel/16/museeq-offline.svg

<svg height="16" width="16" xmlns="http://www.w3.org/2000/svg">
  <path d="m12.997 11.471c-.458.119-1.474.371-2.225.475-.984.137-2.122.213-2.972.198-.608-.011-1.4103-.139-1.8003-.291-.373-.153-.7129-.356-.9999-.61v3.757h-1.9998v-13.999h1.9998v5.181c0 .729.043 1.348.128 1.857.102.508.254.923.4579 1.245.22.322.5.56.839.712.3559.136 1.1493.25 1.6573.25.22 0 1.191-.055 1.411-.072.237-.017.453-.034.657-.051.203-.017.343-.045.496-.062.153-.034.293-.048.344-.065v-8.996h2.01z" fill="#444" opacity=".3"/>
</svg>

<svg xmlns="http://www.w3.org/2000/svg" width="16" height="16" version="1.1">
 <defs>
  <style id="current-color-scheme" type="text/css">
   .ColorScheme-Text { color:#444444; } .ColorScheme-Highlight { color:#4285f4; }
  </style>
 </defs>
 <path style="fill:currentColor;opacity:0.3" class="ColorScheme-Text" d="M 12.997,11.471 C 12.539,11.59 11.523,11.842 10.772,11.946 9.788,12.083 8.65,12.159 7.8,12.144 7.192,12.133 6.3897,12.005 5.9997,11.853 5.6267,11.7 5.2868,11.497 4.9998,11.243 L 4.9998,15 3,15 3,1.001 l 1.9998,0 0,5.181 c 0,0.729 0.043,1.348 0.128,1.857 0.102,0.508 0.254,0.923 0.4579,1.245 0.22,0.322 0.5,0.56 0.839,0.712 0.3559,0.136 1.1493,0.25 1.6573,0.25 0.22,0 1.191,-0.055 1.411,-0.072 0.237,-0.017 0.453,-0.034 0.657,-0.051 0.203,-0.017 0.343,-0.045 0.496,-0.062 0.153,-0.034 0.293,-0.048 0.344,-0.065 L 10.99,1 13,1 Z"/>
</svg>
